assets/icons/full-screen-24.svg

<svg width="24" height="24" viewBox="0 0 24 24" fill="none" xmlns="http://www.w3.org/2000/svg">
<path fill-rule="evenodd" clip-rule="evenodd" d="M3.65466 6.7594C3.2414 7.26781 3 7.92439 3 8.49997C3 9.05225 2.55228 9.49997 2 9.49997C1.44772 9.49997 1 9.05225 1 8.49997C1 7.41869 1.43017 6.32527 2.1027 5.4979C2.7746 4.67129 3.78571 3.99997 5 3.99997L6.5 3.99997C7.05229 3.99997 7.5 4.44769 7.5 4.99998C7.5 5.55226 7.05228 5.99997 6.5 5.99997L5 5.99997C4.55744 5.99997 4.06855 6.25023 3.65466 6.7594ZM19 5.99997L17.5 6.00001C16.9477 6.00003 16.5 5.55233 16.5 5.00004C16.5 4.44776 16.9477 4.00003 17.5 4.00001L19 3.99997C20.2143 3.99997 21.2254 4.67129 21.8973 5.4979C22.5698 6.32527 23 7.4187 23 8.49997C23 9.05225 22.5523 9.49997 22 9.49997C21.4477 9.49997 21 9.05225 21 8.49997C21 7.92439 20.7586 7.26781 20.3453 6.7594C19.9315 6.25024 19.4426 5.99998 19 5.99997C19 5.99997 19 5.99997 19 5.99997ZM2 14.5C2.55228 14.5 3 14.9477 3 15.5C3 16.0755 3.2414 16.7321 3.65466 17.2405C4.06854 17.7497 4.55744 18 5 18H6.5C7.05228 18 7.5 18.4477 7.5 19C7.5 19.5523 7.05228 20 6.5 20H5C3.78571 20 2.7746 19.3287 2.1027 18.502C1.43017 17.6747 1 16.5812 1 15.5C1 14.9477 1.44772 14.5 2 14.5ZM22 14.5C22.5523 14.5 23 14.9477 23 15.5C23 16.5812 22.5698 17.6747 21.8973 18.502C21.2254 19.3287 20.2143 20 19 20H17.5C16.9477 20 16.5 19.5523 16.5 19C16.5 18.4477 16.9477 18 17.5 18H19C19.4426 18 19.9315 17.7497 20.3453 17.2405C20.7586 16.7321 21 16.0755 21 15.5C21 14.9477 21.4477 14.5 22 14.5Z" fill="#F2F2F2"/>
</svg>

<svg xmlns="http://www.w3.org/2000/svg" width="24" height="24" viewBox="0 0 24 24"><path fill-rule="evenodd" d="M3.655 6.76C3.24 7.267 3 7.923 3 8.5a1 1 0 01-2 0c0-1.081.43-2.175 1.103-3.002C2.775 4.67 3.786 4 5 4h1.5a1 1 0 010 2H5c-.443 0-.931.25-1.345.76zM19 6h-1.5a1 1 0 110-2H19c1.214 0 2.225.671 2.897 1.498C22.57 6.325 23 7.418 23 8.5a1 1 0 11-2 0c0-.576-.241-1.232-.655-1.74C19.932 6.25 19.443 6 19 6zM2 14.5a1 1 0 011 1c0 .576.241 1.232.655 1.74.414.51.902.76 1.345.76h1.5a1 1 0 110 2H5c-1.214 0-2.225-.671-2.897-1.498C1.43 17.675 1 16.582 1 15.5a1 1 0 011-1zm20 0a1 1 0 011 1c0 1.081-.43 2.175-1.103 3.002C21.225 19.329 20.214 20 19 20h-1.5a1 1 0 110-2H19c.443 0 .931-.25 1.345-.76.414-.508.655-1.164.655-1.74a1 1 0 011-1z"/></svg>
